svg/black/tia.svg

<?xml version="1.0" encoding="UTF-8"?>
<svg xmlns="http://www.w3.org/2000/svg" xmlns:xlink="http://www.w3.org/1999/xlink" width="32px" height="32px" viewBox="0 0 32 32" version="1.1">
<defs>
<filter id="alpha" filterUnits="objectBoundingBox" x="0%" y="0%" width="100%" height="100%">
  <feColorMatrix type="matrix" in="SourceGraphic" values="0 0 0 0 1 0 0 0 0 1 0 0 0 0 1 0 0 0 1 0"/>
</filter>
<mask id="mask0">
  <g filter="url(#alpha)">
<rect x="0" y="0" width="32" height="32" style="fill:rgb(0%,0%,0%);fill-opacity:0.992157;stroke:none;"/>
  </g>
</mask>
<clipPath id="clip1">
  <rect x="0" y="0" width="32" height="32"/>
</clipPath>
<g id="surface5" clip-path="url(#clip1)">
<path style=" stroke:none;fill-rule:evenodd;fill:rgb(48.235294%,16.862745%,97.647059%);fill-opacity:1;" d="M 15.554688 4.566406 C 18.515625 4.488281 21.125 5.390625 23.386719 7.269531 C 25.519531 9.109375 26.816406 11.425781 27.289062 14.21875 C 27.632812 16.53125 27.316406 18.753906 26.335938 20.878906 C 25.492188 22.640625 24.28125 24.097656 22.703125 25.253906 C 20.363281 26.914062 17.761719 27.621094 14.894531 27.371094 C 11.929688 27.054688 9.453125 25.796875 7.460938 23.605469 C 5.660156 21.5625 4.699219 19.175781 4.570312 16.4375 C 4.488281 13.679688 5.273438 11.203125 6.933594 9.015625 C 8.566406 6.929688 10.671875 5.554688 13.25 4.890625 C 14.007812 4.707031 14.777344 4.601562 15.554688 4.566406 Z M 15.742188 5.515625 C 16.40625 5.503906 17.070312 5.554688 17.726562 5.664062 C 17.851562 5.710938 17.886719 5.796875 17.835938 5.921875 C 17.28125 6.378906 16.828125 6.914062 16.46875 7.53125 C 16.398438 7.652344 16.328125 7.773438 16.261719 7.898438 C 16.144531 8.054688 15.984375 8.121094 15.789062 8.097656 C 14.785156 7.8125 13.761719 7.625 12.722656 7.542969 C 11.800781 7.46875 10.886719 7.511719 9.976562 7.671875 C 9.886719 7.652344 9.851562 7.601562 9.871094 7.515625 C 9.886719 7.492188 9.90625 7.46875 9.929688 7.449219 C 11.667969 6.226562 13.605469 5.582031 15.742188 5.515625 Z M 19.382812 6.269531 C 19.75 6.246094 20.09375 6.332031 20.40625 6.527344 C 20.703125 6.722656 20.964844 6.960938 21.191406 7.238281 C 21.546875 7.691406 21.839844 8.183594 22.078125 8.714844 C 22.46875 9.617188 22.757812 10.550781 22.953125 11.519531 C 23.351562 13.59375 23.453125 15.691406 23.253906 17.800781 C 22.394531 18.488281 21.5 19.121094 20.566406 19.695312 C 18.804688 20.789062 16.949219 21.710938 15.007812 22.460938 C 13.875 22.902344 12.710938 23.238281 11.519531 23.46875 C 10.957031 23.574219 10.394531 23.625 9.824219 23.617188 C 9.472656 23.617188 9.136719 23.554688 8.808594 23.429688 C 8.667969 23.375 8.550781 23.285156 8.457031 23.171875 C 8.359375 23.015625 8.328125 22.847656 8.363281 22.664062 C 8.417969 22.375 8.519531 22.101562 8.671875 21.847656 C 8.898438 21.476562 9.152344 21.128906 9.433594 20.800781 C 9.605469 20.605469 9.785156 20.414062 9.96875 20.226562 C 10.066406 20.054688 10.050781 19.890625 9.917969 19.742188 C 9.839844 19.6875 9.765625 19.628906 9.691406 19.566406 C 9.554688 19.492188 9.414062 19.496094 9.277344 19.574219 C 8.78125 20.054688 8.34375 20.582031 7.96875 21.160156 C 7.84375 21.363281 7.726562 21.574219 7.617188 21.789062 C 7.492188 21.894531 7.367188 21.886719 7.253906 21.769531 C 5.859375 19.617188 5.308594 17.261719 5.597656 14.707031 C 5.632812 14.390625 5.6875 14.074219 5.765625 13.765625 C 5.820312 13.714844 5.871094 13.714844 5.925781 13.765625 C 6.15625 14.492188 6.472656 15.175781 6.875 15.816406 C 7.292969 16.476562 7.765625 17.09375 8.296875 17.667969 C 9.105469 18.535156 9.992188 19.304688 10.953125 19.980469 C 12.058594 20.746094 13.234375 21.40625 14.472656 21.964844 C 14.6875 22.035156 14.90625 22.03125 15.121094 21.953125 C 15.339844 21.871094 15.554688 21.78125 15.769531 21.679688 C 15.917969 21.566406 15.984375 21.414062 15.960938 21.226562 C 15.617188 19.746094 15.4375 18.246094 15.425781 16.730469 C 15.398438 14.953125 15.578125 13.203125 15.972656 11.472656 C 16.085938 10.984375 16.226562 10.503906 16.386719 10.03125 C 16.417969 9.898438 16.378906 9.796875 16.269531 9.714844 C 16.09375 9.648438 15.914062 9.59375 15.730469 9.550781 C 15.617188 9.554688 15.53125 9.609375 15.484375 9.710938 C 15.066406 10.964844 14.785156 12.246094 14.636719 13.558594 C 14.566406 14.167969 14.515625 14.78125 14.484375 15.394531 C 14.449219 15.605469 14.34375 15.777344 14.171875 15.90625 C 13.003906 16.585938 11.894531 17.34375 10.839844 18.183594 C 10.648438 18.3125 10.453125 18.324219 10.25 18.210938 C 9.273438 17.390625 8.4375 16.449219 7.742188 15.394531 C 7.410156 14.878906 7.140625 14.332031 6.933594 13.757812 C 6.75 13.238281 6.648438 12.707031 6.636719 12.15625 C 6.644531 11.097656 7.058594 10.230469 7.878906 9.566406 C 8.46875 9.125 9.128906 8.828125 9.851562 8.671875 C 10.714844 8.488281 11.585938 8.425781 12.46875 8.484375 C 13.507812 8.550781 14.523438 8.730469 15.523438 9.019531 C 17.988281 9.75 20.207031 10.921875 22.175781 12.539062 C 20.835938 12.863281 19.535156 13.296875 18.273438 13.835938 C 17.519531 14.15625 16.78125 14.5 16.050781 14.871094 C 15.972656 14.917969 15.925781 14.984375 15.90625 15.074219 C 15.886719 15.316406 15.878906 15.554688 15.878906 15.796875 C 15.921875 15.90625 16.003906 15.945312 16.117188 15.914062 C 17.660156 15.097656 19.265625 14.417969 20.925781 13.875 C 21.378906 13.734375 21.835938 13.605469 22.296875 13.488281 C 22.609375 13.339844 22.75 13.09375 22.714844 12.75 C 22.679688 12.46875 22.632812 12.191406 22.574219 11.914062 C 22.507812 11.6875 22.386719 11.5 22.210938 11.34375 C 20.707031 10.195312 19.0625 9.277344 17.273438 8.597656 C 17.15625 8.523438 17.113281 8.417969 17.148438 8.28125 C 17.425781 7.761719 17.773438 7.292969 18.195312 6.875 C 18.449219 6.636719 18.742188 6.457031 19.070312 6.339844 C 19.175781 6.308594 19.277344 6.285156 19.382812 6.269531 Z M 23.097656 8.367188 C 23.140625 8.359375 23.175781 8.371094 23.210938 8.398438 C 24.246094 9.390625 25.050781 10.542969 25.621094 11.855469 C 25.660156 11.945312 25.695312 12.035156 25.722656 12.125 C 25.707031 12.222656 25.652344 12.28125 25.550781 12.296875 C 25.394531 12.269531 25.234375 12.25 25.074219 12.238281 C 24.84375 12.230469 24.613281 12.21875 24.386719 12.210938 C 24.167969 12.15625 24.03125 12.019531 23.976562 11.800781 C 23.785156 10.664062 23.46875 9.5625 23.027344 8.5 C 23.019531 8.472656 23.023438 8.449219 23.035156 8.421875 C 23.054688 8.402344 23.074219 8.382812 23.097656 8.367188 Z M 24.582031 13.171875 C 24.902344 13.167969 25.214844 13.203125 25.523438 13.273438 C 25.695312 13.3125 25.855469 13.382812 26.003906 13.480469 C 26.207031 13.632812 26.289062 13.839844 26.253906 14.09375 C 26.207031 14.371094 26.117188 14.632812 25.980469 14.875 C 25.910156 15.015625 25.804688 15.054688 25.664062 14.992188 C 25.554688 14.863281 25.457031 14.722656 25.367188 14.574219 C 25.09375 14.1875 24.800781 13.8125 24.484375 13.457031 C 24.414062 13.324219 24.445312 13.230469 24.582031 13.171875 Z M 24.375 14.980469 C 24.410156 14.976562 24.445312 14.980469 24.480469 14.992188 C 24.683594 15.265625 24.871094 15.546875 25.039062 15.84375 C 25.109375 15.980469 25.089844 16.101562 24.984375 16.210938 C 24.808594 16.394531 24.632812 16.574219 24.453125 16.753906 C 24.394531 16.789062 24.347656 16.78125 24.304688 16.730469 C 24.296875 16.683594 24.289062 16.636719 24.292969 16.585938 C 24.308594 16.078125 24.316406 15.566406 24.304688 15.054688 C 24.320312 15.023438 24.34375 14.996094 24.375 14.980469 Z M 26.398438 16.003906 C 26.421875 16 26.441406 16.007812 26.460938 16.023438 C 26.464844 16.125 26.464844 16.222656 26.460938 16.324219 C 26.433594 16.367188 26.398438 16.371094 26.355469 16.34375 C 26.332031 16.292969 26.308594 16.238281 26.296875 16.183594 C 26.308594 16.113281 26.34375 16.050781 26.398438 16.003906 Z M 14.460938 16.84375 C 14.488281 17.871094 14.578125 18.894531 14.730469 19.917969 C 14.796875 20.316406 14.867188 20.714844 14.945312 21.113281 C 13.648438 20.554688 12.433594 19.867188 11.300781 19.042969 C 12.035156 18.445312 12.800781 17.890625 13.597656 17.382812 C 13.882812 17.199219 14.171875 17.019531 14.460938 16.84375 Z M 25.421875 17.191406 C 25.558594 17.175781 25.65625 17.230469 25.707031 17.359375 C 25.882812 17.921875 25.949219 18.492188 25.90625 19.082031 C 25.808594 20.007812 25.394531 20.753906 24.667969 21.324219 C 24.417969 21.515625 24.148438 21.679688 23.859375 21.8125 C 23.703125 21.859375 23.601562 21.804688 23.554688 21.648438 C 23.546875 21.625 23.546875 21.605469 23.554688 21.582031 C 23.828125 20.582031 24.023438 19.566406 24.144531 18.535156 C 24.1875 18.355469 24.273438 18.203125 24.414062 18.078125 C 24.722656 17.8125 25.019531 17.539062 25.308594 17.25 C 25.34375 17.222656 25.378906 17.203125 25.421875 17.191406 Z M 22.9375 19.269531 C 23.007812 19.277344 23.046875 19.316406 23.058594 19.386719 C 22.914062 20.304688 22.691406 21.203125 22.394531 22.082031 C 22.332031 22.222656 22.226562 22.300781 22.070312 22.320312 C 21.097656 22.445312 20.128906 22.4375 19.15625 22.300781 C 18.921875 22.269531 18.691406 22.234375 18.460938 22.1875 C 18.398438 22.160156 18.375 22.113281 18.390625 22.042969 C 18.402344 22.019531 18.421875 22 18.441406 21.980469 C 20.015625 21.1875 21.511719 20.285156 22.9375 19.269531 Z M 16.738281 22.785156 C 16.769531 22.785156 16.800781 22.785156 16.832031 22.792969 C 18.109375 23.160156 19.414062 23.351562 20.746094 23.371094 C 21.046875 23.363281 21.347656 23.351562 21.648438 23.335938 C 21.753906 23.367188 21.800781 23.4375 21.785156 23.546875 C 21.527344 24.078125 21.207031 24.5625 20.824219 25.007812 C 20.609375 25.242188 20.367188 25.445312 20.097656 25.613281 C 19.457031 25.972656 18.839844 25.941406 18.242188 25.519531 C 17.933594 25.289062 17.667969 25.015625 17.4375 24.707031 C 17.0625 24.183594 16.765625 23.621094 16.539062 23.011719 C 16.558594 22.894531 16.625 22.820312 16.738281 22.785156 Z M 23.53125 22.964844 C 23.609375 22.960938 23.65625 22.996094 23.671875 23.074219 C 23.667969 23.097656 23.660156 23.121094 23.648438 23.144531 C 23.425781 23.382812 23.191406 23.613281 22.945312 23.824219 C 22.832031 23.859375 22.777344 23.816406 22.78125 23.699219 C 22.871094 23.507812 22.953125 23.316406 23.035156 23.125 C 23.054688 23.109375 23.074219 23.097656 23.097656 23.09375 C 23.246094 23.058594 23.390625 23.015625 23.53125 22.964844 Z M 15.421875 23.324219 C 15.523438 23.308594 15.601562 23.34375 15.660156 23.425781 C 15.914062 24.046875 16.226562 24.632812 16.601562 25.183594 C 16.851562 25.53125 17.136719 25.84375 17.457031 26.125 C 17.515625 26.238281 17.484375 26.324219 17.367188 26.375 C 15.058594 26.664062 12.886719 26.25 10.851562 25.125 C 10.671875 25.023438 10.496094 24.914062 10.324219 24.804688 C 10.261719 24.734375 10.261719 24.667969 10.324219 24.597656 C 10.339844 24.582031 10.359375 24.574219 10.378906 24.570312 C 11.339844 24.496094 12.285156 24.328125 13.210938 24.0625 C 13.960938 23.851562 14.699219 23.605469 15.421875 23.324219 Z M 15.421875 23.324219 "/>
</g>
</defs>
<g id="surface1">
<use xlink:href="#surface5" mask="url(#mask0)"/>
</g>
</svg>

<svg xmlns="http://www.w3.org/2000/svg" xmlns:xlink="http://www.w3.org/1999/xlink" width="32" height="32" viewBox="0 0 32 32"><defs><clipPath id="tia_svg-b"><path d="M0 0h32v32H0z"/></clipPath><filter id="tia_svg-a" width="100%" height="100%" x="0%" y="0%" filterUnits="objectBoundingBox"><feColorMatrix in="SourceGraphic" values="0 0 0 0 1 0 0 0 0 1 0 0 0 0 1 0 0 0 1 0"/></filter><mask id="tia_svg-d"><g filter="url(#tia_svg-a)"><path d="M0 0h32v32H0z" style="fill:#000;fill-opacity:.992157;stroke:none"/></g></mask><g id="tia_svg-c" clip-path="url(#tia_svg-b)"><path d="M15.555 4.566q4.44-.116 7.832 2.704c2.133 1.84 3.43 4.156 3.902 6.949a11.53 11.53 0 0 1-.953 6.66 11.5 11.5 0 0 1-3.633 4.375q-3.509 2.491-7.808 2.117c-2.965-.316-5.442-1.574-7.434-3.766q-2.699-3.063-2.89-7.167c-.083-2.758.702-5.235 2.363-7.422Q9.383 5.887 13.25 4.89q1.137-.274 2.305-.325m.187.95a11 11 0 0 1 1.985.148q.187.07.109.258a5.9 5.9 0 0 0-1.367 1.61q-.106.18-.207.366a.48.48 0 0 1-.473.2 15.7 15.7 0 0 0-3.066-.555 10.8 10.8 0 0 0-2.746.129q-.135-.029-.106-.156a.3.3 0 0 1 .059-.067 10.46 10.46 0 0 1 5.812-1.933m3.64.754q.554-.036 1.024.257.446.295.785.711c.356.453.649.946.887 1.477q.584 1.352.875 2.805c.399 2.074.5 4.171.3 6.28q-1.287 1.033-2.687 1.895a33 33 0 0 1-5.558 2.766 20 20 0 0 1-3.488 1.008 8.5 8.5 0 0 1-1.696.148 2.8 2.8 0 0 1-1.015-.187.86.86 0 0 1-.352-.258.68.68 0 0 1-.094-.508q.082-.434.309-.816.339-.556.762-1.047.258-.294.535-.574a.385.385 0 0 0-.051-.485 3 3 0 0 1-.227-.176.4.4 0 0 0-.414.008A9 9 0 0 0 7.97 21.16a9 9 0 0 0-.352.63c-.125.105-.25.097-.363-.02q-2.091-3.23-1.656-7.063c.035-.316.09-.633.168-.941q.08-.076.16 0 .346 1.09.949 2.05.625.99 1.422 1.852a17 17 0 0 0 2.656 2.312 22 22 0 0 0 3.52 1.985c.214.07.433.066.648-.012q.327-.122.649-.273a.47.47 0 0 0 .19-.453 20.5 20.5 0 0 1-.534-4.497 22 22 0 0 1 .547-5.257c.113-.489.254-.97.414-1.442.031-.133-.008-.234-.117-.316a4 4 0 0 0-.54-.164.27.27 0 0 0-.246.16 18.8 18.8 0 0 0-.847 3.848q-.105.914-.153 1.836a.78.78 0 0 1-.312.511 28 28 0 0 0-3.332 2.278.525.525 0 0 1-.59.027 13 13 0 0 1-2.508-2.816 8 8 0 0 1-.808-1.637 5.1 5.1 0 0 1-.297-1.602c.008-1.058.422-1.926 1.242-2.59a5 5 0 0 1 1.973-.894 9.5 9.5 0 0 1 2.617-.188c1.039.067 2.054.246 3.054.536a18.8 18.8 0 0 1 6.653 3.52 25 25 0 0 0-3.903 1.296 36 36 0 0 0-2.222 1.035.3.3 0 0 0-.145.203c-.02.242-.027.48-.027.723q.066.164.238.117a30.6 30.6 0 0 1 4.809-2.039q.68-.21 1.37-.387.47-.222.419-.738a10 10 0 0 0-.14-.836 1.2 1.2 0 0 0-.364-.57 19.5 19.5 0 0 0-4.938-2.746q-.177-.112-.125-.317.416-.78 1.047-1.406.382-.358.875-.535c.106-.031.207-.055.313-.07M23.1 8.367a.14.14 0 0 1 .113.031 10.6 10.6 0 0 1 2.41 3.457q.06.135.102.27c-.016.098-.07.156-.172.172a5 5 0 0 0-.477-.059c-.23-.008-.46-.02-.687-.027a.53.53 0 0 1-.41-.41 15 15 0 0 0-.95-3.301.1.1 0 0 1 .008-.078q.03-.031.063-.055m1.484 4.805q.48-.005.941.101.258.06.48.207.305.231.25.614-.068.417-.273.781-.105.21-.316.117a3 3 0 0 1-.297-.418 13 13 0 0 0-.883-1.117q-.106-.199.098-.285m-.207 1.808q.053-.005.105.012c.204.274.391.555.56.852q.104.204-.056.367-.262.275-.53.543c-.06.035-.106.027-.15-.024-.007-.046-.015-.093-.011-.144.016-.508.023-1.02.012-1.531a.16.16 0 0 1 .07-.075m2.023 1.024q.034-.005.063.02.006.15 0 .3-.041.063-.106.02a1 1 0 0 1-.058-.16.3.3 0 0 1 .101-.18m-11.937.84q.04 1.54.27 3.074.098.598.214 1.195a18.8 18.8 0 0 1-3.644-2.07q1.101-.898 2.297-1.66.429-.275.863-.54m10.96.347q.208-.023.286.168c.176.563.242 1.133.2 1.723a3.16 3.16 0 0 1-1.239 2.242 4.2 4.2 0 0 1-.809.488q-.234.071-.304-.164a.1.1 0 0 1 0-.066q.408-1.5.59-3.047a.86.86 0 0 1 .27-.457q.461-.396.894-.828a.3.3 0 0 1 .113-.059m-2.483 2.079q.104.01.12.117a16.4 16.4 0 0 1-.663 2.695.38.38 0 0 1-.325.238q-1.456.186-2.914-.02a10 10 0 0 1-.695-.113q-.094-.04-.07-.144.018-.034.05-.063a34.4 34.4 0 0 0 4.497-2.71m-6.2 3.515a.4.4 0 0 1 .094.008q1.916.55 3.914.578.451-.012.902-.035.16.047.137.21a6.8 6.8 0 0 1-.96 1.462 3.5 3.5 0 0 1-.727.605q-.96.54-1.856-.093a4 4 0 0 1-.805-.813 7.2 7.2 0 0 1-.898-1.695.27.27 0 0 1 .2-.227m6.793.18q.117-.007.14.11a.3.3 0 0 1-.023.07 9 9 0 0 1-.703.68q-.17.05-.164-.126.133-.287.254-.574a.14.14 0 0 1 .063-.031q.222-.052.433-.13m-8.11.36a.23.23 0 0 1 .24.1q.38.933.94 1.759.376.52.856.941c.059.113.027.2-.09.25q-3.462.436-6.515-1.25-.27-.154-.528-.32-.093-.104 0-.207a.1.1 0 0 1 .055-.028q1.442-.11 2.832-.508a24 24 0 0 0 2.21-.738m0 0" style="stroke:none;fill-rule:evenodd;fill:#7b2bf9;fill-opacity:1"/></g></defs><use xlink:href="#tia_svg-c" mask="url(#tia_svg-d)"/></svg>
